X: 37257
T: Skate, The
R: hornpipe
M: 4/4
K: Cdorian
FE|DFBd ceAc|Bbag ^fgec|f=e_ec AF=EF|DFBd c2FE|
DFBd ceAc|Bbag ^fgec|f=e_ec AFGA|B2 d2B2:|:(gf)|
(f=e)(_ec) A2 (gf)|(fd)(BF) D2 (gf)|(f=e)(_ec) AFGA|Bcde =efgf|
(f=e)(_ec) A2 (gf)|(fd)(BF) D2 (gf)|(f=e)(_ec) AFGA|B2 d2 B2:|
F>E|D>FB>d f>dB>F|D>FB>d f2 (g>f)|(f=e)(_ec) A>gf>=e|f>dB>F D2 (F>E)|
D>FB>d f>dB>F|D>FB>d f2 (g>f)|(f=e)(_ec) A>gf>d|B2B2B2:|

